X:119
T: ES LIEGT EIN SCHLOSS IN OESTERREICH
N: E0061I
O: Europa, Mitteleuropa, Deutschland, Schleswig - Holstein, Westkueste
R: erzaehlendes Volks - Lied, Sage, Mord
M: 4/4
L: 1/8
K: Eb
E2 | E2G2B2GE | D2G2F2z
E | E2G2B2GE | G4F2z
B | c2d2e2dc | B2B2e2d
c | B2G2A3F | F4E2

@@@ Tune index: 3769
